X:1
T:Title
%%score { ( 1 3 ) | ( 2 4 ) }
L:1/8
M:4/4
K:Ab
V:1 treble nm="Grand Piano"
V:3 treble 
V:2 bass 
V:4 bass 
V:1
 z4 z[Q:1/4=94] E A>B | c6 z2 |[M:5/8] E-E- E3 |[M:3/8] AB>c |[M:4/4] d6 z2 | %5
[M:5/8] A-A- A3[K:bass] |[M:3/8][K:treble] EA>B |[M:4/4] c6 z2 |[M:3/4] d6 |[M:1/4] [Af]2 | %10
[M:4/4] e6 z2 |[M:7/8] A-A-A- A- A3 |[M:1/4] E2 |[M:4/4] [Gd]>[_Gc] [=Gd]4 E2 | c>_c =c4 c2 | %15
 z2 E2 Eee=d |[M:9/8] e2- [Ae]- [Ae-] [Be]2- [Be] E2 |[M:4/4] c>_c =c4 [_Ge]2 | %18
 [Fd]>[Ec] [Fd]4 [Af]2 | e2- [Be-][Ae-] [Ge][Gd] [EGc]>[DGB] |[M:5/8] A-A- A3 |] %21
V:2
 z4 z C C>D | E6 z2 |[M:5/8] C-C- C3 |[M:3/8][K:treble] CE>A |[M:4/4] G6[K:bass] z2 | %5
[M:5/8] C-C- C3 |[M:3/8] CC>D |[M:4/4] E6[K:treble] z2 |[M:3/4] F6[K:bass] |[M:1/4] [=D,_C]2 | %10
[M:4/4] B,4 z4 |[M:7/8] z2 D2 C3 |[M:1/4] E,2 |[M:4/4] [E,B,]>[E,=A,] [E,B,]4 E,2 | %14
 [A,E]>[A,=D] [A,E]4 [A,EA]2 | G6 z2 |[M:9/8][K:bass] .B,3 z3 z3 | %17
[M:4/4] [A,E]>[A,=D] [A,E]4 [C,A,]2 | [D,A,]>[D,A,] [D,A,]4 [=D,_C]2 | C6 z2 |[M:5/8] z2 D2 C |] %21
V:3
 x8 | z A, A,>A, A,B A>F |[M:5/8] z A,A,>A,A, |[M:3/8] x3 |[M:4/4] z B, B,>B, B,G F>G | %5
[M:5/8] z E,E,>[K:bass]E,E, |[M:3/8][K:treble] x3 |[M:4/4] z A, A,>A, A,e d>c | %8
[M:3/4] z A, A,>A, A,2 |[M:1/4] x2 |[M:4/4] A2 BA G[Gd] [EGc]>[DGB] |[M:7/8] C2 F2 E3 |[M:1/4] x2 | %13
[M:4/4] x8 | x8 | B6 z2 |[M:9/8] .G3 z3 z3 |[M:4/4] x8 | x8 | A2 z2 z4 |[M:5/8] C2 F2 E |] %21
V:4
 x8 | z A,, A,,>A,, A,,D C>D |[M:5/8] z A,,A,,>A,,A,, |[M:3/8][K:treble] x3 | %4
[M:4/4] z[K:bass] E, E,>E, E,E D>D |[M:5/8] z A,,A,,>A,,A,, |[M:3/8] x3 | %7
[M:4/4] z A,, A,,>A,, A,,[K:treble]_G F>E |[M:3/4] z[K:bass] D, D,>D, D,2 |[M:1/4] x2 | %10
[M:4/4] E,2 E,2 [E,C][E,B,] E,>E, |[M:7/8] A,,-A,,-A,,- A,,- A,,3 |[M:1/4] x2 |[M:4/4] x8 | x8 | %15
 [B,E]2 B,2 B,[B,G][B,G][B,A] |[M:9/8][K:bass] E,2- [E,C]- [E,-C] [E,D]2- [E,D] E,2 |[M:4/4] x8 | %18
 x8 | E,2 E,2 E,[E,B,] E,>E, |[M:5/8] A,,-A,,- A,,3 |] %21

